static/icons/react.svg

<svg width="48" height="43" viewBox="0 0 48 43" fill="none" xmlns="http://www.w3.org/2000/svg">
<path d="M39.4656 13.8422C38.9547 13.6669 38.4396 13.5046 37.9206 13.3553C38.0077 12.999 38.088 12.6471 38.1593 12.3013C39.3289 6.62365 38.5642 2.04959 35.9526 0.543586C33.4485 -0.900164 29.3533 0.605274 25.2174 4.20471C24.8098 4.56009 24.4113 4.9257 24.0221 5.30121C23.7616 5.05151 23.4965 4.80666 23.2269 4.56677C18.8923 0.718149 14.5476 -0.903914 11.9387 0.606399C9.43688 2.05465 8.69606 6.35459 9.74906 11.7355C9.85382 12.2684 9.97211 12.7986 10.1038 13.3255C9.48881 13.5002 8.89537 13.6862 8.32744 13.8842C3.24544 15.6561 0 18.4328 0 21.313C0 24.2876 3.48413 27.2713 8.77725 29.0805C9.20637 29.2266 9.63907 29.3619 10.0749 29.4865C9.93338 30.054 9.8077 30.6253 9.69806 31.1998C8.69419 36.4873 9.47812 40.6856 11.9732 42.1247C14.5502 43.6108 18.8754 42.0835 23.0869 38.4019C23.4284 38.1026 23.7624 37.7948 24.0885 37.4788C24.5099 37.8854 24.9426 38.2802 25.386 38.6627C29.4656 42.1731 33.4946 43.5906 35.9873 42.1476C38.5618 40.6572 39.3986 36.147 38.3122 30.6598C38.2267 30.23 38.1307 29.8022 38.0244 29.377C38.3282 29.287 38.6263 29.1943 38.9169 29.098C44.4197 27.2749 48 24.3274 48 21.313C48 18.4223 44.6497 15.6268 39.4656 13.8422ZM38.2721 27.1517C38.0096 27.2385 37.7404 27.3223 37.4659 27.4039C36.8584 25.4807 36.0386 23.4358 35.0353 21.3229C35.9927 19.2604 36.7809 17.2416 37.3714 15.331C37.8624 15.4731 38.3389 15.6229 38.7982 15.781C43.2401 17.3102 45.9495 19.5709 45.9495 21.313C45.9495 23.1685 43.0234 25.5773 38.2721 27.1517ZM36.3008 31.0581C36.7811 33.4843 36.8496 35.6781 36.5314 37.3932C36.2456 38.9342 35.6707 39.9615 34.9597 40.3731C33.4472 41.2487 30.2122 40.1106 26.7234 37.1083C26.311 36.7527 25.9085 36.3857 25.5165 36.0077C26.8691 34.5285 28.2208 32.809 29.5401 30.8991C31.8606 30.6932 34.0528 30.3565 36.0409 29.8969C36.1366 30.2819 36.2233 30.669 36.3008 31.0581ZM16.3643 40.2218C14.8864 40.7436 13.7092 40.7586 12.9977 40.3483C11.4836 39.4752 10.8542 36.1041 11.7127 31.5823C11.8148 31.048 11.9317 30.5166 12.0632 29.9888C14.0293 30.4238 16.2056 30.7365 18.5316 30.9251C19.8598 32.794 21.2505 34.5117 22.6521 36.0158C22.3542 36.304 22.0493 36.5848 21.7376 36.858C19.8752 38.4859 18.009 39.6409 16.3643 40.2218ZM9.44062 27.1403C7.10006 26.3402 5.16713 25.3005 3.84225 24.166C2.65163 23.1465 2.05069 22.1342 2.05069 21.313C2.05069 19.5651 4.65637 17.3357 9.00244 15.8205C9.52987 15.6368 10.0819 15.4633 10.6547 15.3006C11.2554 17.2543 12.0433 19.2971 12.9941 21.3628C12.0309 23.4591 11.2318 25.5345 10.6252 27.5113C10.2274 27.3974 9.8324 27.2736 9.44062 27.1403ZM11.7615 11.3415C10.8594 6.73146 11.4585 3.2539 12.9662 2.38109C14.5719 1.45146 18.1228 2.7769 21.8655 6.10015C22.1096 6.31735 22.3497 6.53894 22.5857 6.76484C21.1911 8.2624 19.8131 9.96734 18.4967 11.8251C16.2392 12.0343 14.0782 12.3703 12.0915 12.8205C11.9691 12.3304 11.8591 11.8373 11.7615 11.3417V11.3415ZM32.4666 16.4543C31.9973 15.6437 31.5106 14.8433 31.0069 14.0537C32.5384 14.2474 34.0057 14.5045 35.3837 14.8187C34.9701 16.1447 34.4544 17.5309 33.8475 18.9521C33.4039 18.1104 32.9435 17.2776 32.4666 16.4543ZM24.0231 8.23034C24.9688 9.25502 25.9161 10.399 26.8478 11.6402C24.9578 11.551 23.0646 11.5506 21.1746 11.6391C22.1072 10.4093 23.0625 9.26684 24.0231 8.23034ZM15.5254 16.4683C15.0544 17.2851 14.6026 18.1127 14.1703 18.9505C13.5733 17.5343 13.0624 16.1417 12.6452 14.797C14.0147 14.4906 15.4751 14.2401 16.9969 14.05C16.4875 14.8444 15.9969 15.6507 15.5254 16.4681V16.4683ZM17.0406 28.7218C15.4684 28.5463 13.986 28.3088 12.6169 28.0107C13.0406 26.6419 13.5628 25.2197 14.1727 23.7731C14.6068 24.6116 15.0605 25.4397 15.5334 26.2568C16.0198 27.0968 16.5234 27.9195 17.0406 28.7218ZM24.0797 34.54C23.1077 33.4915 22.1383 32.3314 21.1916 31.0838C22.1108 31.1198 23.0477 31.1381 24 31.1381C24.9784 31.1381 25.9455 31.1162 26.8974 31.0738C25.9628 32.344 25.0191 33.5057 24.0797 34.54ZM33.8668 23.6993C34.5084 25.1618 35.0492 26.5765 35.4786 27.9218C34.0869 28.2394 32.5843 28.4951 31.0011 28.6851C31.5084 27.8808 31.9997 27.0665 32.4746 26.2427C32.9575 25.4053 33.4217 24.5573 33.8668 23.6993ZM30.6984 25.2182C29.9713 26.4813 29.2034 27.7204 28.3958 28.9335C26.9328 29.0371 25.4666 29.0886 24 29.0878C22.5062 29.0878 21.0532 29.0413 19.6541 28.9506C18.8254 27.7402 18.0428 26.499 17.3079 25.2295H17.3081C16.5767 23.9667 15.8935 22.6765 15.2601 21.3619C15.8919 20.0469 16.573 18.7562 17.3019 17.4925L17.3018 17.4926C18.0304 16.2286 18.8067 14.9926 19.6292 13.7875C21.0566 13.6795 22.5204 13.6232 23.9998 13.6232H24C25.4861 13.6232 26.9518 13.68 28.3789 13.7888C29.193 14.9921 29.9644 16.2238 30.6917 17.4816C31.423 18.7426 32.1131 20.027 32.7609 21.3328C32.1198 22.652 31.4318 23.948 30.6984 25.2182ZM34.9284 2.31996C36.5357 3.24696 37.1608 6.98515 36.1509 11.8873C36.0864 12.2001 36.0141 12.5186 35.9353 12.8417C33.9437 12.382 31.7812 12.0401 29.5172 11.8277C28.1983 9.94952 26.8316 8.24196 25.4597 6.76371C25.8192 6.41712 26.1874 6.07952 26.5637 5.75121C30.1074 2.6674 33.4194 1.44977 34.9284 2.31996ZM24 17.0267C26.3672 17.0267 28.2863 18.9458 28.2863 21.313C28.2863 23.6801 26.3672 25.5992 24 25.5992C21.6328 25.5992 19.7137 23.6801 19.7137 21.313C19.7137 18.9458 21.6328 17.0267 24 17.0267Z" fill="#00D8FF"/>
</svg>

<svg width="48" height="43" fill="none" xmlns="http://www.w3.org/2000/svg"><path d="M39.466 13.842a32.125 32.125 0 0 0-1.545-.487c.087-.356.167-.708.238-1.054 1.17-5.677.405-10.251-2.206-11.757-2.505-1.444-6.6.061-10.736 3.66-.407.356-.806.722-1.195 1.097a27.62 27.62 0 0 0-.795-.734C18.892.718 14.547-.903 11.939.607c-2.502 1.448-3.243 5.748-2.19 11.129.105.532.223 1.063.355 1.59-.615.174-1.209.36-1.777.558C3.245 15.656 0 18.433 0 21.313c0 2.975 3.484 5.958 8.777 7.768.43.146.862.28 1.298.405a31.434 31.434 0 0 0-.377 1.714c-1.004 5.287-.22 9.486 2.275 10.925 2.577 1.486 6.902-.041 11.114-3.723.341-.3.675-.607 1.002-.923.42.406.854.801 1.297 1.184 4.08 3.51 8.109 4.928 10.601 3.485 2.575-1.49 3.412-6.001 2.325-11.488a27.05 27.05 0 0 0-.288-1.283c.304-.09.602-.183.893-.279C44.42 27.275 48 24.328 48 21.313c0-2.89-3.35-5.686-8.534-7.47Zm-1.194 13.31c-.262.086-.532.17-.806.252-.608-1.923-1.427-3.968-2.43-6.081.957-2.063 1.745-4.081 2.335-5.992.491.142.968.292 1.427.45 4.442 1.53 7.151 3.79 7.151 5.532 0 1.856-2.926 4.264-7.677 5.839Zm-1.971 3.906c.48 2.426.549 4.62.23 6.335-.285 1.541-.86 2.569-1.571 2.98-1.513.876-4.748-.262-8.237-3.265a29.359 29.359 0 0 1-1.206-1.1c1.352-1.48 2.704-3.199 4.023-5.109 2.32-.206 4.513-.543 6.5-1.002.097.385.183.772.26 1.161Zm-19.937 9.164c-1.478.522-2.655.537-3.366.126-1.514-.873-2.144-4.244-1.285-8.766a29.95 29.95 0 0 1 .35-1.593c1.966.435 4.143.747 6.469.936a49.91 49.91 0 0 0 4.12 5.09 25.28 25.28 0 0 1-.914.843c-1.863 1.628-3.729 2.783-5.374 3.364ZM9.441 27.14c-2.34-.8-4.274-1.84-5.599-2.974-1.19-1.02-1.791-2.032-1.791-2.853 0-1.748 2.605-3.977 6.951-5.492a29.72 29.72 0 0 1 1.653-.52 49.178 49.178 0 0 0 2.34 6.062 49.956 49.956 0 0 0-2.37 6.148 25.29 25.29 0 0 1-1.184-.37Zm2.32-15.799c-.902-4.61-.302-8.087 1.205-8.96 1.606-.93 5.157.396 8.9 3.72.244.216.484.438.72.664a49.142 49.142 0 0 0-4.09 5.06 50.24 50.24 0 0 0-6.404.995 30.13 30.13 0 0 1-.33-1.478Zm20.706 5.113c-.47-.81-.956-1.61-1.46-2.4 1.531.193 2.999.45 4.377.765a43.784 43.784 0 0 1-1.537 4.133 71.377 71.377 0 0 0-1.38-2.498ZM24.023 8.23a43.885 43.885 0 0 1 2.825 3.41 59.965 59.965 0 0 0-5.673 0 45.234 45.234 0 0 1 2.848-3.41Zm-8.498 8.238a60.554 60.554 0 0 0-1.355 2.483 45.28 45.28 0 0 1-1.525-4.154c1.37-.306 2.83-.557 4.352-.747-.51.794-1 1.6-1.472 2.418Zm1.516 12.254a43.645 43.645 0 0 1-4.424-.711 45.907 45.907 0 0 1 1.556-4.238 60.343 60.343 0 0 0 2.868 4.949Zm7.039 5.818a45.98 45.98 0 0 1-2.888-3.456c.919.036 1.856.054 2.808.054.978 0 1.945-.022 2.897-.064a43.597 43.597 0 0 1-2.817 3.466Zm9.787-10.84a43.51 43.51 0 0 1 1.612 4.222 43.53 43.53 0 0 1-4.478.763c.507-.804.999-1.618 1.474-2.442.483-.838.947-1.686 1.392-2.544Zm-3.169 1.518a67.221 67.221 0 0 1-2.302 3.715 61.42 61.42 0 0 1-4.396.155c-1.494 0-2.947-.047-4.346-.137a58.203 58.203 0 0 1-2.346-3.721 57.615 57.615 0 0 1-2.048-3.868 58.12 58.12 0 0 1 2.042-3.87 57.593 57.593 0 0 1 2.327-3.705 58.049 58.049 0 0 1 4.37-.164H24c1.486 0 2.952.057 4.379.166a61.767 61.767 0 0 1 2.313 3.693 67.253 67.253 0 0 1 2.069 3.85 61.743 61.743 0 0 1-2.063 3.886Zm4.23-22.898c1.608.927 2.233 4.665 1.223 9.567-.065.313-.137.632-.216.955a49.093 49.093 0 0 0-6.418-1.014c-1.319-1.878-2.685-3.586-4.057-5.064.36-.347.727-.684 1.104-1.013 3.543-3.084 6.855-4.301 8.364-3.431ZM24 17.027a4.286 4.286 0 1 1 0 8.572 4.286 4.286 0 0 1 0-8.572Z" fill="#00D8FF"/></svg>
